svg/human_cane.svg

<svg xmlns="http://www.w3.org/2000/svg" viewBox="0 0 24 24"><path d="M18 12.24V22h-.94v-9.76c0-.15-.06-.24-.13-.35a.42.42 0 0 0-.31-.13.46.46 0 0 0-.35.13c-.09.11-.13.21-.13.35v.92h-.91v-.66c-.7-.17-1.33-.46-1.88-.87s-1.01-.89-1.39-1.44l-.35 1.2c-.11.42-.11.85-.11 1.29v.65l1.85 2.61V22H11.5v-4.66L9.82 15l-.17 3.25L6.86 22l-1.48-1.13 2.39-3.23v-4.96c0-.53.05-1.05.14-1.57l.34-1.57-1.39.78v3.31H5v-4.4l5-2.83c.29-.14.59-.22.91-.22s.63.09.92.26c.32.18.56.44.74.79l.74 1.57c.29.58.73 1.07 1.33 1.46.59.39 1.25.59 1.98.59.38 0 .7.15.98.39.28.26.4.59.4 1M12 2a2 2 0 0 1 2 2c0 1.11-.89 2-2 2a2 2 0 1 1 0-4"/></svg>

<?xml version="1.0" encoding="UTF-8"?><!DOCTYPE svg PUBLIC "-//W3C//DTD SVG 1.1//EN" "http://www.w3.org/Graphics/SVG/1.1/DTD/svg11.dtd"><svg xmlns="http://www.w3.org/2000/svg" xmlns:xlink="http://www.w3.org/1999/xlink" version="1.1" id="mdi-human-cane" width="24" height="24" viewBox="0 0 24 24"><path d="M18 12.24V22H17.06V12.24C17.06 12.09 17 12 16.93 11.89C16.84 11.8 16.74 11.76 16.62 11.76C16.47 11.76 16.36 11.8 16.27 11.89C16.18 12 16.14 12.1 16.14 12.24V13.16H15.23V12.5C14.53 12.33 13.9 12.04 13.35 11.63C12.8 11.22 12.34 10.74 11.96 10.19L11.61 11.39C11.5 11.81 11.5 12.24 11.5 12.68L11.5 13L11.5 13.33L13.35 15.94V22H11.5V17.34L9.82 15L9.65 18.25L6.86 22L5.38 20.87L7.77 17.64V12.68C7.77 12.15 7.82 11.63 7.91 11.11L8.25 9.54L6.86 10.32V13.63H5V9.23L10 6.4C10.29 6.26 10.59 6.18 10.91 6.18C11.23 6.18 11.54 6.27 11.83 6.44C12.15 6.62 12.39 6.88 12.57 7.23L13.31 8.8C13.6 9.38 14.04 9.87 14.64 10.26C15.23 10.65 15.89 10.85 16.62 10.85C17 10.85 17.32 11 17.6 11.24C17.88 11.5 18 11.83 18 12.24M12 2C13.11 2 14 2.9 14 4C14 5.11 13.11 6 12 6C10.9 6 10 5.11 10 4C10 2.9 10.9 2 12 2Z" /></svg>
